X: 1
T: Bar'chu
C: Ben Siegel
M: 4/4
L: 1/8
Q: "Lively" 1/4=104
K: Em
[|"Em"G>F EF GA "Am"EA | "Em"G6 z2 | "Em"G>F EF GA "D7"Bc | "G"B6 z2 |
| "Em"B2 GB "F"A2 A2 | "Am"A2 EA "Em"G2 G2 | "C"G>F EF "Am"GA EA | "Em"G6 z2 |
|  "G"B2 GB "F"A2 A2 | "Am"A2 EA "Em"G2 G2 | "C"G>F EF GB "D"A2 | "Em"E4 "ginf"z2 EG |
| "Em"B4 B2 AG | "Am"AB A6 | "C"E2 GB "D"A2 GF | "Em"E6 z2 |]
